!! 00000] TT[WS
!!!OTL: Zizhao de duixiang xinzhong ai
!!!ARE: Asia, China, Shanxi Hequ
!! Ethnic Group: Han
!! WI, 292
!!!SCT: J0353
!!!YEM: Copyright 1995, estate of Helmut Schaffrath.
**kern
*ICvox
*Ivox
*M2/4
*k[b-e-]
*B-:
{8ddd
16ddd
16aa
8ccc
16bb-
16ccc
=1
8.bb-
16ccc
8ggg
16fff
16ddd
=2
8ccc
16fff
16aa
8gg
16ff
16dd
=3
2cc}
=4
{8ddd
16ddd
16aa
8ccc
16bb-
16ccc
=5
8.bb-
16ccc
8ggg
16fff
16ddd
=6
8ccc
16fff
16aa
8gg
16ff
16dd
=7
2ff}
==
!!!AGN: Xiaodiao. Xinminge, Qingge, Xuanchuan
!! Neue Text. Politische Liede
!!!ONB: ESAC (Essen Associative Code) Database: CHINA
!!!AMT: simple duple
!!!AIN: vox
!!!EED: Helmut Schaffrath
!!!EEV: 1.0
*-
